!!!COM: Mozart, Wolfgang Amadeus
!!!OPR: Quartet in E-flat Major
!!!OTL:
!!!OMV: 4
!!!SCT: K 171
!!!SCA: Chronologisch-thematisches Verzeichnis sämtlicher Tonwerke Wolfgang Amade Mozarts (L. von Köchel; 1862, 2/1905, 3/1937, 1947)
!!!YOR: Breitkopf & Härtel Edition
!!!EED: Frances Bennion
!!!ENC: Frances Bennion
!!!CDT: 1756/1/27/-1791/12/5/
!!!OCY: Österreich
!!!YEC: Copyright (c) 1994, 2000 Center for Computer Assisted Research in the Humanities
!!!YEM: Rights to all derivative editions reserved.
!!!YEM: Refer to licensing agreement for further details.
!!!YEN: United States of America
**kern	**kern	**kern	**kern
*k[b-e-a-]	*k[b-e-a-]	*k[b-e-a-]	*k[b-e-a-]
*E-:	*E-:	*E-:	*E-:
*clefG	*clefG	*clefF	*clefC
*M3/8	*M3/8	*M3/8	*M3/8
*tb16	*tb16	*tb16	*tb16
=1	=1	=1	=1
4b-	4g	4B-	4E-
8a-	8f	8d	8BB-
=2	=2	=2	=2
8g	8e-	8e-	8C
4r	4r	4r	4r
=3	=3	=3	=3
4a-	4f	4c	4AA-
8f	8d	8A-	8BB-
=4	=4	=4	=4
8e-	8e-	8G	8EE-
4r	4r	4r	4r
=5	=5	=5	=5
8aa- 8b-	8ff 8dd	8B-	8BB-
4r	4r	4r	4r
=6	=6	=6	=6
8gg 8b-	8ee- 8g	8B-	8E-
4r	4r	4r	4r
=7	=7	=7	=7
4a-	4f	4c	4AA-
8f	8d	8A-	8BB-
=8	=8	=8	=8
8e-	8e-	8G	8EE-
4r	4r	4r	4r
=9	=9	=9	=9
16e-	16e-	4g	4E-
16d	16d	.	.
16e-	16e-	.	.
16f	16f	.	.
16g	16g	8r	8r
16a	16a	.	.
=10	=10	=10	=10
16b-	16b-	4f	4D
16a	16a	.	.
16b-	16b-	.	.
16cc	16cc	.	.
16dd	16dd	8r	8r
16b-	16b-	.	.
=11	=11	=11	=11
16ee-	16ee-	16e-	16E-
16dd	16dd	16d	16D
16ee-	16ee-	16e-	16E-
16ff	16ff	16f	16F
16gg	16gg	16g	16G
16aa	16aa	16a	16A
=12	=12	=12	=12
4bb-	4bb-	4b-	4B-
8r	8r	8r	8r
=13	=13	=13	=13
[4.b-	4.r	8B-	8BB-
.	.	8B-	8BB-
.	.	8B-	8BB-
=14	=14	=14	=14
8b-]	4.r	8B-	8BB-
8ee-	.	8B-	8BB-
8dd	.	8B-	8BB-
=15	=15	=15	=15
8dd	4.r	8B-	8BB-
8cc	.	8B-	8BB-
8b-	.	8B-	8BB-
=16	=16	=16	=16
8dd	4.r	8B-	8BB-
8cc	.	8B-	8BB-
8b-	.	8B-	8BB-
=17	=17	=17	=17
[4.dd	[4.B-	8B-	8BB-
.	.	8B-	8BB-
.	.	8B-	8BB-
=18	=18	=18	=18
8dd]	8B-]	8B-	8BB-
8gg	8e-	8B-	8BB-
8ff	8d	8B-	8BB-
=19	=19	=19	=19
8ff	8d	8r	8BB-
8ee-	8c	8A	8BB-
8dd	8B-	8B-	8BB-
=20	=20	=20	=20
8ff	8d	8r	8BB-
8ee-	8c	8A	8BB-
8dd	8B-	8B-	8BB-
=21	=21	=21	=21
4.bb-	8a-	8f	8D
.	8a-	8f	8D
.	8a-	8f	8D
=22	=22	=22	=22
4.A-	8f	8B-	8D
.	8f	8B-	8D
.	8f	8B-	8D
=23	=23	=23	=23
4.G	8e-	8B-	8E-
.	8e-	8B-	8E-
.	8e-	8B-	8E-
=24	=24	=24	=24
[4.gg	8b-	8e-	8E-
.	8b-	8e-	8E-
.	8b	8e-	8E-
=25	=25	=25	=25
16gg]	4cc	4e-	4E-
16aa	.	.	.
16bb-	.	.	.
16aa	.	.	.
16gg	8r	8r	8r
16ff	.	.	.
=26	=26	=26	=26
16ee-	4.g	4.c	4E-
16ff	.	.	.
16ee-	.	.	.
16dd	.	.	.
16cc	.	.	8E
16b-	.	.	.
=27	=27	=27	=27
8a	8f	8c	8F
8ff 8a	8cc 8f	8A	8FF
8ff 8a	8cc 8f	8c	8FF
=28	=28	=28	=28
4ff 4a	4cc 4f	4F	4FF
8r	8r	8r	8r
=29	=29	=29	=29
8r	8r	4.d	4.BB-
16b-	16B-	.	.
16cc	16c	.	.
16dd	16d	.	.
16ee-	16e-	.	.
=30	=30	=30	=30
8ff	8f	4.B-	4.D
8ff	8f	.	.
8ff	8f	.	.
=31	=31	=31	=31
8.ff	8.f	4.A	4.E-
16gg	16g	.	.
8ff	8f	.	.
=32	=32	=32	=32
8.ff	8.f	4.e-	4.AA
16gg	16g	.	.
8ff	8f	.	.
=33	=33	=33	=33
8ff	8f	4.d	4.BB-
16dd	16d	.	.
16cc	16c	.	.
16dd	16d	.	.
16ee-	16e-	.	.
=34	=34	=34	=34
8ff	8f	4.B-	4.D
8ff	8f	.	.
8ff	8f	.	.
=35	=35	=35	=35
8.ff	8.f	4.A	4.E-
16gg	16g	.	.
8ff	8f	.	.
=36	=36	=36	=36
8.ff	8.f	4.e-	4.AA
16gg	16g	.	.
8ff	8f	.	.
=37	=37	=37	=37
4.ff	16f	4.d	8BB-
.	16b-	.	.
.	16dd	.	8BB-
.	16b-	.	.
.	16ff	.	8BB-
.	16dd	.	.
=38	=38	=38	=38
16ddd	8b-	16b-	8BB-
16ccc	.	16a	.
16bb-	4r	16g	4r
16aa	.	16f	.
16gg	.	16e-	.
16ff	.	16d	.
=39	=39	=39	=39
4.gg	16B-	4.e-	8E-
.	16e-	.	.
.	16g	.	8E-
.	16e-	.	.
.	16b-	.	8E-
.	16g	.	.
=40	=40	=40	=40
16bb-	8e-	16g	8E-
16aa	.	16f	.
16gg	4r	16e-	4r
16ff	.	16d	.
16ee-	.	16c	.
16dd	.	16B-	.
=41	=41	=41	=41
4cc	8f	8A	4E-
.	8a	8f	.
8dd	8b-	8f	8D
=42	=42	=42	=42
8ee-	8cc	8g	8C
8dd	8b-	8f	8F
8cc	8a	8e-	8FF
=43	=43	=43	=43
8b-	4b-	8d	4.BB-
16d	.	16D	.
16c	.	16C	.
16d	8r	16D	.
16e-	.	16E-	.
=44	=44	=44	=44
8f	4.B-	8F	4.D
8f	.	8F	.
8f	.	8F	.
=45	=45	=45	=45
8.f	4.A	8.F	4.E-
16g	.	16G	.
8f	.	8F	.
=46	=46	=46	=46
8.f	4.e-	8.F	4.AA
16g	.	16G	.
8f	.	8F	.
=47	=47	=47	=47
8f	4.d	8F	4.BB-
16d	.	16D	.
16c	.	16C	.
16d	.	16D	.
16e-	.	16E-	.
=48	=48	=48	=48
8f	4.B-	8F	4.D
8f	.	8F	.
8f	.	8F	.
=49	=49	=49	=49
8.f	4.A	8.F	4.E-
16g	.	16G	.
8f	.	8F	.
=50	=50	=50	=50
8.f	4.e-	8.F	4.AA
16g	.	16G	.
8f	.	8F	.
=51	=51	=51	=51
4.f	4.d	16F	8BB-
.	.	16B-	.
.	.	16d	8BB-
.	.	16B-	.
.	.	16f	8BB-
.	.	16d	.
=52	=52	=52	=52
16dd	16b-	8B-	8BB-
16cc	16a	.	.
16b-	16g	4r	4r
16a	16f	.	.
16g	16e-	.	.
16f	16d	.	.
=53	=53	=53	=53
4.g	4.e-	16B-	8E-
.	.	16e-	.
.	.	16g	8E-
.	.	16e-	.
.	.	16b-	8E-
.	.	16g	.
=54	=54	=54	=54
16b-	16g	8e-	8E-
16a	16f	.	.
16g	16e-	4r	4r
16f	16d	.	.
16e-	16c	.	.
16d	16B-	.	.
=55	=55	=55	=55
4c	4A	4.F	8F
.	.	.	8E-
8d	8B-	.	8D
=56	=56	=56	=56
8e-	8c	8G	8C
8d	8B-	8F	8F
8c	8A	8F	8FF
=57	=57	=57	=57
4.ff	4.dd	16F	8BB-
.	.	16B-	.
.	.	16d	8BB-
.	.	16B-	.
.	.	16f	8BB-
.	.	16d	.
=58	=58	=58	=58
16ddd	16bb-	8B-	8BB-
16ccc	16aa	.	.
16bb-	16gg	4r	4r
16aa	16ff	.	.
16gg	16ee-	.	.
16ff	16dd	.	.
=59	=59	=59	=59
4.gg	4.ee-	16B-	8E-
.	.	16e-	.
.	.	16g	8E-
.	.	16e-	.
.	.	16b-	8E-
.	.	16g	.
=60	=60	=60	=60
16bb-	16gg	8e-	8E-
16aa	16ff	.	.
16gg	16ee-	4r	4r
16ff	16dd	.	.
16ee-	16cc	.	.
16dd	16b-	.	.
=61	=61	=61	=61
4cc	4a	4.f	8F
.	.	.	8E-
8dd	8b-	.	8D
=62	=62	=62	=62
8ee-	8cc	8g	8C
8dd	8b-	8f	8F
8cc	8a	8e-	8FF
=63	=63	=63	=63
4b-	4b-	4d	4BB-
8r	8r	8r	8r
=64	=64	=64	=64
4ff	4dd	4f	4B-
8ee-	8cc	8a	8F
=65	=65	=65	=65
8dd	8b-	8b-	8G
4r	4r	4r	4r
=66	=66	=66	=66
4ee-	4cc	4g	4C
8cc	8a	8e-	8F
=67	=67	=67	=67
8b-	8b-	8d	8BB-
4r	4r	4r	4r
=68	=68	=68	=68
8aa 8cc	8ee- 8f	8f	8F
4r	8r	4r	4r
.	8r	.	.
=69	=69	=69	=69
8bb- 8dd	8dd 8f	8f	8BB-
4r	4r	4r	4r
=70	=70	=70	=70
4e-	4c	4G	8r
.	.	.	8E-
8c	8A	8F	8F
=71	=71	=71	=71
8B-	8B-	8F	8BB-
4r	4r	4r	4r
=72	=72	=72	=72
4b-	4.f	4.d	8B-
.	.	.	8B-
8bb-	.	.	8B-
=73	=73	=73	=73
8bb-	4.g	4.e-	8B-
8cc	.	.	8B-
8cc	.	.	8B-
=74	=74	=74	=74
4cc	4.a-	4.f	8B-
.	.	.	8B-
8aa-	.	.	8B-
=75	=75	=75	=75
8aa-	4.f	4.d	8B-
8b-	.	.	8B-
8b-	.	.	8B-
=76	=76	=76	=76
4b-	4.g	4.e-	8B-
.	.	.	8B-
8gg	.	.	8B-
=77	=77	=77	=77
4a-	4e-	4c	8B-
.	.	.	8B-
8ff	8f	8d	8B-
=78	=78	=78	=78
4g	4e-	[4.B-	8B-
.	.	.	8B-
8ee-	8g	.	8B-
=79	=79	=79	=79
4f	4d	4B-]	8B-
.	.	.	8F
8r	8r	8r	8D
=80	=80	=80	=80
4B-	4.B-	4.G	8BB-
.	.	.	8BB-
8b-	.	.	8BB-
=81	=81	=81	=81
8b-	4.G	4.E	8BB-
8c	.	.	8BB-
8c	.	.	8BB-
=82	=82	=82	=82
4c	[4.A-	4.F	8BB-
.	.	.	8BB-
8a-	.	.	8BB-
=83	=83	=83	=83
8a-	4.A-]	4.D	8BB-
8B-	.	.	8BB-
8B-	.	.	8BB-
=84	=84	=84	=84
8B-	8G	8E-	8BB-
8e-	8B-	8G	8BB-
8g	8e-	8B-	8BB-
=85	=85	=85	=85
8b-	8g	[4.B-	8BB-
8g	8e-	.	8BB-
8ee-	8b-	.	8BB-
=86	=86	=86	=86
8b-	8g	8B-]	8BB-
8a-	8f	8d	8BB-
8g	8e-	8e-	8BB-
=87	=87	=87	=87
8f	8d	8B-	8BB-
8b-	8b-	8b-	8B-
8b-	8b-	8b-	8B-
=88	=88	=88	=88
8g	8g	8g	8G
8f	8f	8f	8F
8e-	8e-	8e-	8E-
=89	=89	=89	=89
8f	8f	8f	8F
8b-	8b-	8b-	8B-
8b-	8b-	8b-	8B-
=90	=90	=90	=90
8g	8g	8g	8G
8f	8f	8f	8F
8e-	8e-	8e-	8E-
=91	=91	=91	=91
8B-	8B-	8B-	8BB-
4r	4r	4r	4r
=92	=92	=92	=92
4b-	4g	4B-	4E-
8a-	8f	8d	8BB-
=93	=93	=93	=93
8g	8e-	8e-	8C
4r	4r	4r	4r
=94	=94	=94	=94
4a-	4f	4c	4AA-
8f	8d	8A-	8BB-
=95	=95	=95	=95
8e-	8e-	8G	8EE-
4r	4r	4r	4r
=96	=96	=96	=96
8dd 8f	8a- 8B-	8B-	8BB-
4r	4r	4r	4r
=97	=97	=97	=97
8ee- 8g	8g 8B-	8B-	8E-
4r	4r	4r	4r
=98	=98	=98	=98
4a-	4f	4c	4AA-
8f	8d	8A-	8BB-
=99	=99	=99	=99
8e-	8e-	8G	8EE-
4r	4r	4r	4r
=100	=100	=100	=100
16e-	16e-	4g	4E-
16d	16d	.	.
16e-	16e-	.	.
16f	16f	.	.
16g	16g	8r	8r
16a	16a	.	.
=101	=101	=101	=101
16b-	16b-	4f	4D
16a	16a	.	.
16b-	16b-	.	.
16cc	16cc	.	.
16dd	16dd	8r	8r
16b-	16b-	.	.
=102	=102	=102	=102
16ee-	16ee-	16e-	16E-
16dd	16dd	16d	16D
16ee-	16ee-	16e-	16E-
16ff	16ff	16f	16F
16gg	16gg	16g	16G
16aa	16aa	16a	16A
=103	=103	=103	=103
4bb-	4bb-	4b-	4B-
8r	8r	8r	8r
=104	=104	=104	=104
[4.e-	4.r	8E-	8E-
.	.	8E-	8E-
.	.	8E-	8E-
=105	=105	=105	=105
8e-]	4.r	8E-	8E-
8a-	.	8E-	8E-
8g	.	8E-	8E-
=106	=106	=106	=106
8g	4.r	8E-	8E-
8f	.	8E-	8E-
8e-	.	8E-	8E-
=107	=107	=107	=107
8g	4.r	8E-	8E-
8f	.	8E-	8E-
8e-	.	8E-	8E-
=108	=108	=108	=108
[4.g	[4.e-	8E-	8EE-
.	.	8E-	8EE-
.	.	8E-	8EE-
=109	=109	=109	=109
8g]	8e-]	8E-	8EE-
8cc	8a-	8E-	8EE-
8b-	8g	8E-	8EE-
=110	=110	=110	=110
8b-	8g	8r	8EE-
8a-	8f	8D	8EE-
8g	8e-	8E-	8EE-
=111	=111	=111	=111
8b-	8g	8r	8EE-
8a-	8f	8D	8EE-
8g	8e-	8E-	8EE-
=112	=112	=112	=112
4.ee-	8b-	8G	8GG
.	8b-	8G	8GG
.	8b-	8G	8GG
=113	=113	=113	=113
4.d-	8e-	8B-	8GG
.	8e-	8B-	8GG
.	8e-	8B-	8GG
=114	=114	=114	=114
4.c	8e-	8A-	8AA-
.	8e-	8A-	8AA-
.	8e-	8A-	8AA-
=115	=115	=115	=115
4.ccc	8a-	8e-	8AA-
.	8a-	8e-	8AA-
.	8a-	8e-	8AA-
=116	=116	=116	=116
16ccc	8cc	8a-	8AA-
16bb-	.	.	.
16aa-	4r	4r	4r
16gg	.	.	.
16ff	.	.	.
16ee	.	.	.
=117	=117	=117	=117
16ff	4.cc	[4.f	4A-
16gg	.	.	.
16aa-	.	.	.
16gg	.	.	.
16ff	.	.	8A
16ee-	.	.	.
=118	=118	=118	=118
8dd	8b-	8f]	8B-
8bb- 8dd	8dd 8f	8d	8F
8bb- 8dd	8dd 8f	8f	8D
=119	=119	=119	=119
4bb- 4dd	4dd 4f	4B-	8BB-
.	.	.	4r
8r	8r	8r	.
=120	=120	=120	=120
8r	8r	4.G	4.E-
16ee-	16e-	.	.
16ff	16f	.	.
16gg	16g	.	.
16aa-	16a-	.	.
=121	=121	=121	=121
8bb-	8b-	4.e-	4.G
8bb-	8b-	.	.
8bb-	8b-	.	.
=122	=122	=122	=122
8.bb-	8.b-	4.d	4.A-
16ccc	16cc	.	.
8bb-	8b-	.	.
=123	=123	=123	=123
8.bb-	8.b-	4.a-	4.D
16ccc	16cc	.	.
8bb-	8b-	.	.
=124	=124	=124	=124
8bb-	8b-	4.g	4.E-
16gg	16g	.	.
16ff	16f	.	.
16gg	16g	.	.
16aa-	16a-	.	.
=125	=125	=125	=125
8bb-	8b-	4.e-	4.G
8bb-	8b-	.	.
8bb-	8b-	.	.
=126	=126	=126	=126
8.bb-	8.b-	4.d	4.A-
16ccc	16cc	.	.
8bb-	8b-	.	.
=127	=127	=127	=127
8.bb-	8.b-	4.a-	4.D
16ccc	16cc	.	.
8bb-	8b-	.	.
=128	=128	=128	=128
4.bb-	16b-	4.g	8E-
.	16ee-	.	.
.	16gg	.	8E-
.	16ee-	.	.
.	16bb-	.	8E-
.	16gg	.	.
=129	=129	=129	=129
16ggg	8ee-	16ee-	8E-
16fff	.	16dd	.
16eee-	4r	16cc	4r
16ddd	.	16b-	.
16ccc	.	16a-	.
16bb-	.	16g	.
=130	=130	=130	=130
4.ccc	16e-	4.a-	8AA-
.	16a-	.	.
.	16cc	.	8AA-
.	16a-	.	.
.	16ee-	.	8AA-
.	16cc	.	.
=131	=131	=131	=131
16eee-	8a-	16cc	8AA-
16ddd	.	16b-	.
16ccc	4r	16a-	4r
16bb-	.	16g	.
16aa-	.	16f	.
16gg	.	16e-	.
=132	=132	=132	=132
4ff	8b-	8d	4A-
.	8dd	8b-	.
8gg	8ee-	8b-	8G
=133	=133	=133	=133
8aa-	8ff	8cc	8F
8gg	8ee-	8b-	8B-
8ff	8dd	8a-	8BB-
=134	=134	=134	=134
8ee-	8ee-	8g	8E-
16g	4r	16G	4r
16f	.	16F	.
16g	.	16G	.
16a-	.	16A-	.
=135	=135	=135	=135
8b-	4.e-	8B-	4.GG
8b-	.	8B-	.
8b-	.	8B-	.
=136	=136	=136	=136
8.b-	4.d	8.B-	4.AA-
16cc	.	16c	.
8b-	.	8B-	.
=137	=137	=137	=137
8.b-	4.a-	8.B-	4.DD
16cc	.	16c	.
8b-	.	8B-	.
=138	=138	=138	=138
8b-	4.g	8B-	4.EE-
16g	.	16G	.
16f	.	16F	.
16g	.	16G	.
16a-	.	16A-	.
=139	=139	=139	=139
8b-	4.e-	8B-	4.GG
8b-	.	8B-	.
8b-	.	8B-	.
=140	=140	=140	=140
8.b-	4.d	8.B-	4.AA-
16cc	.	16c	.
8b-	.	8B-	.
=141	=141	=141	=141
8.b-	4.a-	8.B-	4.DD
16cc	.	16c	.
8b-	.	8B-	.
=142	=142	=142	=142
4.b-	4.g	16B-	8EE-
.	.	16e-	.
.	.	16g	8EE-
.	.	16e-	.
.	.	16b-	8EE-
.	.	16g	.
=143	=143	=143	=143
16gg	16ee-	8e-	8EE-
16ff	16dd	.	.
16ee-	16cc	4r	4r
16dd	16b-	.	.
16cc	16a-	.	.
16b-	16g	.	.
=144	=144	=144	=144
4.cc	4.a-	16E-	8AA-
.	.	16A-	.
.	.	16c	8AA-
.	.	16A-	.
.	.	16e-	8AA-
.	.	16c	.
=145	=145	=145	=145
16ee-	16cc	8A-	8AA-
16dd	16b-	.	.
16cc	16a-	4r	4r
16b-	16g	.	.
16a-	16f	.	.
16g	16e-	.	.
=146	=146	=146	=146
4f	4d	4.B-	4AA-
8g	8e-	.	8GG
=147	=147	=147	=147
8a-	8f	8c	8FF
8g	8e-	8B-	4BB-
8f	8d	8B-	.
=148	=148	=148	=148
4.bb-	4.gg	16B-	8E-
.	.	16e-	.
.	.	16g	8E-
.	.	16e-	.
.	.	16b-	8E-
.	.	16g	.
=149	=149	=149	=149
16ggg	16eee-	8e-	8E-
16fff	16ddd	.	.
16eee-	16ccc	4r	4r
16ddd	16bb-	.	.
16ccc	16aa-	.	.
16bb-	16gg	.	.
=150	=150	=150	=150
4.ccc	4.aa-	16E-	8AA-
.	.	16A-	.
.	.	16c	8AA-
.	.	16A-	.
.	.	16e-	8AA-
.	.	16c	.
=151	=151	=151	=151
16eee-	16ccc	8A-	8AA-
16ddd	16bb-	.	.
16ccc	16aa-	4r	4r
16bb-	16gg	.	.
16aa-	16ff	.	.
16gg	16ee-	.	.
=152	=152	=152	=152
4ff	4dd	8B-	8B-
.	.	8b-	8A-
8gg	8ee-	8b-	8G
=153	=153	=153	=153
8aa-	8ff	8cc	8F
8gg	8ee-	8b-	8B-
8ff	8dd	8a-	8BB-
=154	=154	=154	=154
4ee-	4ee-	4g	4E-
8r	8r	8r	8r
=155	=155	=155	=155
4b-	4g	4B-	4E-
8a-	8f	8d	8BB-
=156	=156	=156	=156
8g	8e-	8e-	8C
8r	4r	4r	4r
8r	.	.	.
=157	=157	=157	=157
4a-	4f	4c	4AA-
8f	8d	8A-	8BB-
=158	=158	=158	=158
8e-	8e-	8G	8EE-
8r	4r	4r	4r
8r	.	.	.
=159	=159	=159	=159
8aa- 8b-	8dd 8f	8B-	8BB-
8r	4r	4r	4r
8r	.	.	.
=160	=160	=160	=160
8gg 8b-	8ee- 8g	8B-	8E-
8r	4r	4r	4r
8r	.	.	.
=161	=161	=161	=161
4a-	4f	4c	8r
.	.	.	8AA-
8f	8d	8A-	8BB-
=162	=162	=162	=162
8e-	8e-	8G	8EE-
8r	4r	4r	4r
8r	.	.	.
==	==	==	==
*-	*-	*-	*-
!!!RWG1: This file contains only pitch and duration data.
!!!RWG2: Transposing instruments are not transposed.
!!!RWG3: Spines may have incompatible meters.
!!!RWG4: Durations of rests and tied notes may be interpreted.
!!!RWG: Key is interpreted using the Humdrum key tool.
!!!AFT: stage1
!!!END: 1997/04/15
!!format changes:
!!content changes:
!!public access: complete
!!!KEY: 3955796539
!!!EMD: Converted from MuseData to Humdrum Dec 16, 2000, by Andreas Kornstaedt using muse2kern.
